X:20
T:Amazing Grace
C:Aubrey Haney solo
N:Transcribed by Mike Stangeland
R:bluegrass
L:1/8
Q:1/2=80
M:3/4
K:G
^A,/B,/ D3/2E/ | "G"G4 (3^A=AG | ^AB zd (3BA=A | "C"G7/2(3D (3EGE | "G"DA, (3B,A,G, (3B,DE | 
|G4 (3^A=AG | ^A3/2B/ z3/2(3G (3ABd | "D"d4 [d/F/][d3/2E3/2] | [dE][dF] z2 (3BcB | 
|"G"d7/2g/ d/c/B/G/ | B3d (3B^A=A | "C"G7/2(3D (3EGE | "G"D3/2(3A, (3B,A,G, G3/2F/ | 
|"Em"E2 (3z^A,B, (3DEG | "D"^AB zd A/=A/G/F/ | "G"G6 | z3^A,/B,/ D3/2E/ |
| "G"G4 (3^A=AG | ^Ad zd (3ded | "C"^A/B/G z2 (3EGE | "G"DA, (3B,A,G, (3B,DE |
| G4 (3^A=AG | ^A3/2B/ z2 (3a^g=g | "D"=f/^fd/ z2 c/B/A/G/ | E/F3/2 F2 (3BcB |
| "G"d4 d/^c/=c/B/ | d/B7/2 (3B^A=A | "C"G7/2(3D (3EGE | "G"D3/2(3A, (3B,A,G, G3/2F/ |
| "Em"E2 (3z^A,B, (3DEG | "D"^AB zd A/=A/G/F/ | "G"G6 | 

